packages/core/src/svgs/tokens/mono/TPAD.svg

<svg width="24" height="24" viewBox="0 0 24 24" fill="none" xmlns="http://www.w3.org/2000/svg">
<path d="M11.8612 22L11.8723 2L3.66675 5.81111L5.90563 7.12779L10.3334 5.10557V21.1056C10.5834 21.2611 10.8389 21.4055 11.0945 21.5501L11.8612 22ZM13.6668 21.1111L12.1334 22V2L20.3334 5.81111L18.1223 7.15001L13.6668 5.05557V21.1111ZM3.66675 6.62223C4.0223 6.83335 4.40008 7.04445 4.77786 7.25556C5.15564 7.46668 5.53342 7.67778 5.88896 7.8889V15.8778L9.77789 18.1889V20.6889L3.66675 17.1277V6.62223ZM19.2223 7.25556C19.6001 7.04445 19.9778 6.83335 20.3334 6.62223V17.1277C19.3167 17.7222 18.2946 18.3279 17.2779 18.9389L14.2222 20.7444V18.1889C14.8889 17.8 15.5279 17.4167 16.1667 17.0334C16.8056 16.6445 17.4446 16.2612 18.1111 15.8778V7.8889C18.4667 7.67778 18.8446 7.46668 19.2223 7.25556Z" fill="white"/>
</svg>

<svg xmlns="http://www.w3.org/2000/svg" width="24" height="24" fill="none" viewBox="0 0 24 24">
    <path fill="#fff" d="m11.861 22 .011-20-8.205 3.811 2.239 1.317 4.427-2.022v16c.25.155.506.3.761.444zm1.806-.889L12.133 22V2l8.2 3.811-2.21 1.339-4.456-2.094zm-10-14.489c.355.211.733.422 1.11.634.379.21.756.422 1.112.633v7.989l3.889 2.31v2.5l-6.111-3.56zm15.555.634a50 50 0 0 0 1.111-.634v10.506c-1.016.594-2.038 1.2-3.055 1.81l-3.056 1.806V18.19c.667-.389 1.306-.772 1.945-1.156a91 91 0 0 1 1.944-1.155v-7.99c.356-.21.734-.421 1.111-.632"/>
</svg>
